public/assets/icons/condition_slow.svg

<?xml version="1.0" standalone="no"?>
<!DOCTYPE svg PUBLIC "-//W3C//DTD SVG 1.1//EN" "http://www.w3.org/Graphics/SVG/1.1/DTD/svg11.dtd" >
<svg xmlns="http://www.w3.org/2000/svg" xmlns:xlink="http://www.w3.org/1999/xlink" version="1.1" viewBox="0 -64 1024 1024" width="512" height="512">
  <g transform="matrix(1 0 0 -1 0 960)">
   <path fill="currentColor"
d="M512 806q-13 0 -28 -12.5t-40 -38.5l-239 -239q-51 -51 -51 -68t51 -68l239 -239q51 -51 68 -51t68 51l239 239q51 51 51 68t-51 68l-239 239q-25 26 -40 38.5t-28 12.5v0zM432 550q21 0 36.5 -9.5t27.5 -20.5q12 -12 22.5 -25t20.5 -26t19 -24.5t17 -18.5q8 -8 12.5 -10
l4.5 -2q11 0 22 6.5t24 20.5t26 31.5t29 33.5l48 -48q-10 -10 -23 -27.5t-30 -35.5t-40.5 -33.5t-55.5 -15.5q-21 0 -36.5 9.5t-27.5 21.5q-12 11 -22.5 24t-20.5 26t-19 24.5t-17 18.5q-8 8 -12.5 10l-4.5 2q-11 0 -22 -6.5t-24 -20.5t-26 -32t-29 -33l-48 48
q10 10 23 27.5t30 35.5t40.5 33.5t55.5 15.5v0z" />
  </g>

</svg>

<?xml version="1.0" encoding="UTF-8" standalone="no"?>
<svg
   version="1.1"
   viewBox="0 -64 1024 1024"
   width="512"
   height="512"
   id="svg605"
   sodipodi:docname="condition_slow.svg"
   inkscape:version="1.2.2 (732a01da63, 2022-12-09)"
   xmlns:inkscape="http://www.inkscape.org/namespaces/inkscape"
   xmlns:sodipodi="http://sodipodi.sourceforge.net/DTD/sodipodi-0.dtd"
   xmlns="http://www.w3.org/2000/svg"
   xmlns:svg="http://www.w3.org/2000/svg">
  <defs
     id="defs609" />
  <sodipodi:namedview
     id="namedview607"
     pagecolor="#ffffff"
     bordercolor="#000000"
     borderopacity="0.25"
     inkscape:showpageshadow="2"
     inkscape:pageopacity="0.0"
     inkscape:pagecheckerboard="0"
     inkscape:deskcolor="#d1d1d1"
     showgrid="false"
     inkscape:zoom="1.6191406"
     inkscape:cx="236.23643"
     inkscape:cy="256.30881"
     inkscape:window-width="1920"
     inkscape:window-height="1009"
     inkscape:window-x="-8"
     inkscape:window-y="-8"
     inkscape:window-maximized="1"
     inkscape:current-layer="svg605" />
  <g
     transform="matrix(1,0,0,-1,0,896)"
     id="g603">
    <path
       fill="currentColor"
       d="M 512,806 Q 499,806 484,793.5 469,781 444,755 L 205,516 q -51,-51 -51,-68 0,-17 51,-68 L 444,141 q 51,-51 68,-51 17,0 68,51 l 239,239 q 51,51 51,68 0,17 -51,68 L 580,755 Q 555,781 540,793.5 525,806 512,806 Z M 432,550 q 21,0 36.5,-9.5 Q 484,531 496,520 q 12,-12 22.5,-25 10.5,-13 20.5,-26 10,-13 19,-24.5 9,-11.5 17,-18.5 8,-8 12.5,-10 l 4.5,-2 q 11,0 22,6.5 11,6.5 24,20.5 13,14 26,31.5 13,17.5 29,33.5 l 48,-48 Q 731,448 718,430.5 705,413 688,395 671,377 647.5,361.5 624,346 592,346 571,346 555.5,355.5 540,365 528,377 q -12,11 -22.5,24 -10.5,13 -20.5,26 -10,13 -19,24.5 -9,11.5 -17,18.5 -8,8 -12.5,10 l -4.5,2 q -11,0 -22,-6.5 Q 399,469 386,455 373,441 360,423 347,405 331,390 l -48,48 q 10,10 23,27.5 13,17.5 30,35.5 17,18 40.5,33.5 Q 400,550 432,550 Z"
       id="path601" />
  </g>
</svg>
